Suru++-Ubuntu/apps/scalable/foxit-reader.svg

<svg width="256" height="256" version="1.1" viewBox="0 0 67.73 67.73" xmlns="http://www.w3.org/2000/svg" xmlns:xlink="http://www.w3.org/1999/xlink">
 <defs>
  <linearGradient id="linearGradient1108" x1="296" x2="296" y1="-212" y2="236" gradientUnits="userSpaceOnUse">
   <stop style="stop-color:#ffffff" offset="0"/>
   <stop style="stop-color:#ffffff;stop-opacity:.09803922" offset=".125"/>
   <stop style="stop-color:#000000;stop-opacity:.09803922" offset=".925"/>
   <stop style="stop-color:#000000;stop-opacity:.49803922" offset="1"/>
  </linearGradient>
  <clipPath id="clipPath1082-3-626">
   <path d="M 361.9375,-212 C 507.2348,-212 528,-191.28677 528,-46.125 V 70.125 C 528,215.28618 507.2348,236 361.9375,236 H 214.0625 C 68.7652,236 48,215.28618 48,70.125 V -46.125 C 48,-191.28677 68.7652,-212 214.0625,-212 Z" style="fill:#8c59d9"/>
  </clipPath>
  <filter id="filter930" x="-.02" y="-.03" width="1.046" height="1.05" style="color-interpolation-filters:sRGB">
   <feGaussianBlur stdDeviation="2.32"/>
  </filter>
  <filter id="filter4569" x="-.01" y="-.01" width="1.023" height="1.025" style="color-interpolation-filters:sRGB">
   <feGaussianBlur stdDeviation="1.16"/>
  </filter>
  <filter id="filter1017" x="-.05" y="-.05" width="1.096" height="1.096" style="color-interpolation-filters:sRGB">
   <feGaussianBlur stdDeviation=".952"/>
  </filter>
 </defs>
 <g transform="translate(0,-229.26666)">
  <path transform="matrix(.26970778 0 0 .26970778 -7.1289177 220.56049)" d="m188.96876 43.999995c72.64865 0 83.03125 10.356615 83.03125 82.937505v58.125c0 72.58059-10.3826 82.9375-83.03125 82.9375h-73.9375c-72.648654 0-83.031254-10.35691-83.031254-82.9375v-58.125c0-72.58089 10.3826-82.937505 83.031254-82.937505z" style="filter:url(#filter4569);opacity:.1"/>
  <path transform="matrix(.26970778 0 0 .26970778 -7.1289177 220.56049)" d="m188.96876 45.999995c72.64865 0 83.03125 10.356615 83.03125 82.937505v58.125c0 72.58059-10.3826 82.9375-83.03125 82.9375h-73.9375c-72.648654 0-83.031254-10.35691-83.031254-82.9375v-58.125c0-72.58089 10.3826-82.937505 83.031254-82.937505z" style="filter:url(#filter930);opacity:.2"/>
  <path d="m43.837426 232.42763c19.593907 0 22.394175 2.79326 22.394175 22.36889v15.67677c0 19.57555-2.800268 22.36888-22.394175 22.36888h-19.94152c-19.593906 0-22.394175-2.79333-22.394175-22.36888v-15.67677c0-19.57563 2.8002681-22.36889 22.394175-22.36889z" style="fill:#f18d00"/>
  <path transform="matrix(.13485389 0 0 .13485389 -4.9712556 261.01666)" d="M 361.9375,-212 C 507.2348,-212 528,-191.28677 528,-46.125 V 70.125 C 528,215.28618 507.2348,236 361.9375,236 H 214.0625 C 68.7652,236 48,215.28618 48,70.125 V -46.125 C 48,-191.28677 68.7652,-212 214.0625,-212 Z" clip-path="url(#clipPath1082-3-626)" style="fill:none;opacity:.5;stroke-linecap:round;stroke-linejoin:round;stroke-width:8;stroke:url(#linearGradient1108)"/>
  <path d="m1.5017307 262.6349v7.83839c0 19.57555 2.8002681 22.36888 22.394174 22.36888h19.94152c19.593907 0 22.394175-2.79333 22.394175-22.36888v-7.83839z" style="fill:#ffffff;opacity:.1"/>
  <path transform="matrix(.26458333 0 0 .26458333 0 229.26666)" d="m198.2207 13.177734c-2.47134-0.236092-4.9315-0.473956-7.63672-0.632812-7.37676-0.433179-15.64147-0.597656-24.89843-0.597656h-38.63477v228.33789h38.63477c9.25696 0 17.52167-0.16447 24.89843-0.59766 3.68838-0.21659 7.15505-0.49967 10.41211-0.86328 3.25707-0.36361 6.30468-0.8073 9.15625-1.34375 2.85158-0.53645 5.50661-1.16724 7.97852-1.90235 2.47191-0.7351 4.76084-1.57558 6.87891-2.53515s4.06541-2.03819 5.85546-3.24805c1.79006-1.20985 3.4223-2.55115 4.91016-4.03711 1.48786-1.48595 2.83148-3.11642 4.04297-4.90429 1.21149-1.78788 2.291-3.73205 3.25195-5.84766s1.80283-4.40194 2.53907-6.87109c0.73623-2.46916 1.36696-5.12218 1.90429-7.97071 0.53734-2.84852 0.98144-5.89278 1.34571-9.14648 0.30112-2.68972 0.51587-5.61494 0.71484-8.59766 0.07707-3.6758 0.28125-6.8367 0.28125-10.88281v-75.371094c0-59.530748-7.41641-78.015371-51.63477-82.988282z" style="fill:#ffffff;opacity:.1"/>
  <path transform="matrix(.26458333 0 0 .26458333 0 229.26666)" d="m127.05078 11.527344v0.419922h38.63477c9.25696 0 17.52167 0.164477 24.89843 0.597656 2.70522 0.158856 5.16538 0.39672 7.63672 0.632812-10.78888-1.213346-23.69563-1.65039-39.30468-1.65039h-31.86524z" style="fill:#ffffff;opacity:.05"/>
  <path d="m57.677578 255.41485c-4.462414-18.86551-21.602472-18.70738-31.951273-13.78229-10.890768 5.50419-18.777384 19.61152-14.47594 31.42501 6.648139 17.8211 31.120223 17.55438 39.402125 0.98105 2.457423-6.07687 4.262393-10.39167-2.497905-16.16613v7.14368l-2.381224-4.76245s-2.113433 4.99582-4.358595 7.27441c-3.124167 3.1694-7.54848 2.25023-7.54848 2.25023 0.835095 3.15681 7.143672 4.76246 7.143672 4.76246-16.376635 7.75092-16.855738-5.20319-16.668573-8.33426 0.537441-9.0115 7.782558-16.00516 17.327457-15.50345 3.043208 0.23355 8.865302 2.40742 8.865302 2.40742-2.190725-5.01271-5.310132-6.20548-7.143677-7.14369 7.187489-2.37659 11.023645 5.12655 14.28735 9.44679z" style="fill-rule:evenodd;filter:url(#filter1017);opacity:.3"/>
  <path d="m57.677578 255.41485c-4.462414-18.86551-21.602472-18.70738-31.951273-13.78229-10.890768 5.50419-18.777384 19.61152-14.47594 31.42501 6.648139 17.8211 31.120223 17.55438 39.402125 0.98105 2.457423-6.07687 4.262393-10.39167-2.497905-16.16613v7.14368l-2.381224-4.76245s-2.113433 4.99582-4.358595 7.27441c-3.124167 3.1694-7.54848 2.25023-7.54848 2.25023 0.835095 3.15681 7.143672 4.76246 7.143672 4.76246-16.376635 7.75092-16.855738-5.20319-16.668573-8.33426 0.537441-9.0115 7.782558-16.00516 17.327457-15.50345 3.043208 0.23355 8.865302 2.40742 8.865302 2.40742-2.190725-5.01271-5.310132-6.20548-7.143677-7.14369 7.187489-2.37659 11.023645 5.12655 14.28735 9.44679z" style="fill-rule:evenodd;fill:#ffffff"/>
 </g>
</svg>

<svg xmlns="http://www.w3.org/2000/svg" xmlns:xlink="http://www.w3.org/1999/xlink" width="256" height="256" version="1.1" viewBox="0 0 67.73 67.73">
 <defs>
  <linearGradient id="linearGradient1108" x1="296" x2="296" y1="-212" y2="236" gradientUnits="userSpaceOnUse" xlink:href="#linearGradient1013"/>
  <linearGradient id="linearGradient1013">
   <stop offset="0" style="stop-color:#ffffff"/>
   <stop style="stop-color:#ffffff;stop-opacity:0.09803922" offset=".125"/>
   <stop style="stop-color:#000000;stop-opacity:0.09803922" offset=".925"/>
   <stop offset="1" style="stop-color:#000000;stop-opacity:0.49803922"/>
  </linearGradient>
  <clipPath id="clipPath1082-3-626" clipPathUnits="userSpaceOnUse">
   <path d="M 361.9375,-212 C 507.2348,-212 528,-191.28677 528,-46.125 V 70.125 C 528,215.28618 507.2348,236 361.9375,236 H 214.0625 C 68.7652,236 48,215.28618 48,70.125 V -46.125 C 48,-191.28677 68.7652,-212 214.0625,-212 Z" style="fill:#8c59d9"/>
  </clipPath>
  <filter style="color-interpolation-filters:sRGB" id="filter930" width="1.046" height="1.05" x="-.02" y="-.03">
   <feGaussianBlur stdDeviation="2.32"/>
  </filter>
  <filter style="color-interpolation-filters:sRGB" id="filter4569" width="1.023" height="1.025" x="-.01" y="-.01">
   <feGaussianBlur stdDeviation="1.16"/>
  </filter>
  <filter style="color-interpolation-filters:sRGB" id="filter1017" width="1.096" height="1.096" x="-.05" y="-.05">
   <feGaussianBlur stdDeviation=".952"/>
  </filter>
 </defs>
 <g transform="translate(0,-229.26666)">
  <path d="m 188.96876,43.999995 c 72.64865,0 83.03125,10.356615 83.03125,82.937505 v 58.125 c 0,72.58059 -10.3826,82.9375 -83.03125,82.9375 h -73.9375 C 42.382606,268 32.000006,257.64309 32.000006,185.0625 v -58.125 c 0,-72.58089 10.3826,-82.937505 83.031254,-82.937505 z" transform="matrix(0.26970778,0,0,0.26970778,-7.1289177,220.56049)" style="opacity:0.1;filter:url(#filter4569)"/>
  <path style="opacity:0.2;filter:url(#filter930)" d="m 188.96876,45.999995 c 72.64865,0 83.03125,10.356615 83.03125,82.937505 v 58.125 c 0,72.58059 -10.3826,82.9375 -83.03125,82.9375 h -73.9375 C 42.382606,270 32.000006,259.64309 32.000006,187.0625 v -58.125 c 0,-72.58089 10.3826,-82.937505 83.031254,-82.937505 z" transform="matrix(0.26970778,0,0,0.26970778,-7.1289177,220.56049)"/>
  <path style="fill:#f18d00" d="m 43.837426,232.42763 c 19.593907,0 22.394175,2.79326 22.394175,22.36889 v 15.67677 c 0,19.57555 -2.800268,22.36888 -22.394175,22.36888 h -19.94152 c -19.5939065,0 -22.3941746,-2.79333 -22.3941746,-22.36888 v -15.67677 c 0,-19.57563 2.8002681,-22.36889 22.3941746,-22.36889 z"/>
  <path d="M 361.9375,-212 C 507.2348,-212 528,-191.28677 528,-46.125 V 70.125 C 528,215.28618 507.2348,236 361.9375,236 H 214.0625 C 68.7652,236 48,215.28618 48,70.125 V -46.125 C 48,-191.28677 68.7652,-212 214.0625,-212 Z" clip-path="url(#clipPath1082-3-626)" transform="matrix(0.13485389,0,0,0.13485389,-4.9712556,261.01666)" style="opacity:0.5;fill:none;stroke:url(#linearGradient1108);stroke-width:8;stroke-linecap:round;stroke-linejoin:round"/>
  <path style="opacity:0.1;fill:#ffffff" d="m 1.5017307,262.6349 v 7.83839 c 0,19.57555 2.8002681,22.36888 22.3941743,22.36888 h 19.94152 c 19.593907,0 22.394175,-2.79333 22.394175,-22.36888 v -7.83839 z"/>
  <path style="opacity:0.1;fill:#ffffff" d="M 198.2207 13.177734 C 195.74936 12.941642 193.2892 12.703778 190.58398 12.544922 C 183.20722 12.111743 174.94251 11.947266 165.68555 11.947266 L 127.05078 11.947266 L 127.05078 240.28516 L 165.68555 240.28516 C 174.94251 240.28516 183.20722 240.12069 190.58398 239.6875 C 194.27236 239.47091 197.73903 239.18783 200.99609 238.82422 C 204.25316 238.46061 207.30077 238.01692 210.15234 237.48047 C 213.00392 236.94402 215.65895 236.31323 218.13086 235.57812 C 220.60277 234.84302 222.8917 234.00254 225.00977 233.04297 C 227.12784 232.0834 229.07518 231.00478 230.86523 229.79492 C 232.65529 228.58507 234.28753 227.24377 235.77539 225.75781 C 237.26325 224.27186 238.60687 222.64139 239.81836 220.85352 C 241.02985 219.06564 242.10936 217.12147 243.07031 215.00586 C 244.03126 212.89025 244.87314 210.60392 245.60938 208.13477 C 246.34561 205.66561 246.97634 203.01259 247.51367 200.16406 C 248.05101 197.31554 248.49511 194.27128 248.85938 191.01758 C 249.1605 188.32786 249.37525 185.40264 249.57422 182.41992 C 249.65129 178.74412 249.85547 175.58322 249.85547 171.53711 L 249.85547 96.166016 C 249.85547 36.635268 242.43906 18.150645 198.2207 13.177734 z" transform="matrix(0.26458333,0,0,0.26458333,0,229.26666)"/>
  <path style="opacity:0.05;fill:#ffffff" d="M 127.05078 11.527344 L 127.05078 11.947266 L 165.68555 11.947266 C 174.94251 11.947266 183.20722 12.111743 190.58398 12.544922 C 193.2892 12.703778 195.74936 12.941642 198.2207 13.177734 C 187.43182 11.964388 174.52507 11.527344 158.91602 11.527344 L 127.05078 11.527344 z" transform="matrix(0.26458333,0,0,0.26458333,0,229.26666)"/>
  <path d="m 57.677578,255.41485 c -4.462414,-18.86551 -21.602472,-18.70738 -31.951273,-13.78229 -10.890768,5.50419 -18.7773842,19.61152 -14.47594,31.42501 6.648139,17.8211 31.120223,17.55438 39.402125,0.98105 2.457423,-6.07687 4.262393,-10.39167 -2.497905,-16.16613 v 7.14368 l -2.381224,-4.76245 c 0,0 -2.113433,4.99582 -4.358595,7.27441 -3.124167,3.1694 -7.54848,2.25023 -7.54848,2.25023 0.835095,3.15681 7.143672,4.76246 7.143672,4.76246 -16.376635,7.75092 -16.855738,-5.20319 -16.668573,-8.33426 0.537441,-9.0115 7.782558,-16.00516 17.327457,-15.50345 3.043208,0.23355 8.865302,2.40742 8.865302,2.40742 -2.190725,-5.01271 -5.310132,-6.20548 -7.143677,-7.14369 7.187489,-2.37659 11.023645,5.12655 14.28735,9.44679 z" style="fill-rule:evenodd;filter:url(#filter1017);opacity:0.3"/>
  <path style="fill:#ffffff;fill-rule:evenodd" d="m 57.677578,255.41485 c -4.462414,-18.86551 -21.602472,-18.70738 -31.951273,-13.78229 -10.890768,5.50419 -18.7773842,19.61152 -14.47594,31.42501 6.648139,17.8211 31.120223,17.55438 39.402125,0.98105 2.457423,-6.07687 4.262393,-10.39167 -2.497905,-16.16613 v 7.14368 l -2.381224,-4.76245 c 0,0 -2.113433,4.99582 -4.358595,7.27441 -3.124167,3.1694 -7.54848,2.25023 -7.54848,2.25023 0.835095,3.15681 7.143672,4.76246 7.143672,4.76246 -16.376635,7.75092 -16.855738,-5.20319 -16.668573,-8.33426 0.537441,-9.0115 7.782558,-16.00516 17.327457,-15.50345 3.043208,0.23355 8.865302,2.40742 8.865302,2.40742 -2.190725,-5.01271 -5.310132,-6.20548 -7.143677,-7.14369 7.187489,-2.37659 11.023645,5.12655 14.28735,9.44679 z"/>
 </g>
</svg>
